X:1
T:Title
%%score [ ( 1 2 ) ( 3 4 ) ]
L:1/8
Q:1/4=120
M:4/4
K:D
V:1 treble nm="Midi_74" snm=" "
V:2 treble 
V:3 bass nm="Midi_74"
V:4 bass 
V:1
"^Piae Cantiones,\ntranslated by G.R. Woodward"{x} D2 E2 F2 G2 | %1
w: Un- to us is|
w: |
w: This did He- rod|
w: |
w: O and A, and|
"^Unto us is born a Son" F2 E2 (D2 D2) | %2
w: born a Son, *|
w: |
w: sore af- ray, and|
w: |
w: A and O, *|
 A2"^Melody from Piae Cantiones,\narr. G.H. Palmer" A2 B2 c2 | d4 d4 | d2 e2 c2 d2 | B2 A2 A2 F2 | %6
w: King of quires su-|per- nal:|see on earth his|life be- gun, of|
w: ||||
w: grie- vous- ly be-|wil- der,|so he gave the|word to slay, and|
w: ||||
w: ||let our mer- ry|or- gan go, *|
 A2 G2 F2 E2 | (D2 E2) F2 G2 | A2 G2 F2 E2 | D2 D2 D4 |] %10
w: lords the Lord e-|\-ter * nal, of|lords the Lord e-|ter * nal.|
w: ||||
w: slew the lit- tle|chil * der, and|slew the lit- tle|chil * der.|
w: ||||
w: ||||
V:2
 D2 D2 D2 D2 | D2 C2 (D2 D2) | D2 D2 G2 G2 | (G2 FE) F4 | F2 G2 E2 D2 | D2 D2 C2 D2 | D2 D2 C2 C2 | %7
w: |||||||
w: Christ, from heav'n de-|scend- ing low, *|comes on earth a|stran * * ger;|ox and ass their|own- er know, be-|cra- dled in the|
w: |||||||
w: Of his love and|mer- cy mild *|this the Christ- mas|sto * * ry;|O that Ma- ry's|gen- tle child might|lead us up to|
w: |* * * cum|can- ti- bus in|cho * * ro,||* * * Be-|ne- di- ca- mus|
 (B,2 C2) D2 D2 | C2 D2 C2 C2 | D2 B,2 A,4 |] %10
w: |||
w: man * ger, be-|cra- dled in the|man- * ger.|
w: |||
w: glo * ry, might|lead us up to|glo- * ry!|
w: Do- mi- no, be-|ne- di- ca- mus|Do- mi- no.|
V:3
 F,2 G,2 A,2 B,2 | A,3 G, (F,2 F,2) | A,2 D2 D2 G,2 | A,4 A,4 | B,2 B,2 A,2 A,2 | G,2 F,2 E,2 D,2 | %6
"^This edition  Andrew Sims 2014" A,2 B,2 A,2 G,2 | (F,2 F,2) F,2 D,2 | E,2 B,2 A,2 G,2 | %9
 F,2 G,2 F,4 |] %10
V:4
 D,2 D,2 D,2 G,,2 | A,,2 A,,2 (D,2 D,2) | F,2 F,2 G,2 E,2 | D,4 D,4 | B,2 E,2 A,2 F,2 | %5
 G,2 D,2 A,,2 B,,2 | F,,2 G,,2 A,,2 A,,2 | (B,,2 B,,2) B,,2 B,,2 | A,,2 A,,2 A,,2 A,,2 | %9
 D,2 D,2 D,4 |] %10

